assets/icons/hourglass-filled.svg

<?xml version="1.0" encoding="UTF-8" standalone="no"?>
<svg viewBox="0 0 24 24" height="24" id="svg7384" version="1.1" width="24" sodipodi:docname="hourglass-filled.svg" inkscape:version="1.1 (ce6663b3b7, 2021-05-25)"
   xmlns:inkscape="http://www.inkscape.org/namespaces/inkscape"
   xmlns:sodipodi="http://sodipodi.sourceforge.net/DTD/sodipodi-0.dtd"
   xmlns="http://www.w3.org/2000/svg"
   xmlns:svg="http://www.w3.org/2000/svg"
   xmlns:rdf="http://www.w3.org/1999/02/22-rdf-syntax-ns#"
   xmlns:cc="http://creativecommons.org/ns#"
   xmlns:dc="http://purl.org/dc/elements/1.1/">
   <sodipodi:namedview id="namedview24" pagecolor="#ffffff" bordercolor="#666666" borderopacity="1.0" inkscape:pageshadow="2" inkscape:pageopacity="0.0" inkscape:pagecheckerboard="0" showgrid="false" inkscape:zoom="28" inkscape:cx="17.660714" inkscape:cy="9.125" inkscape:window-width="1920" inkscape:window-height="1016" inkscape:window-x="0" inkscape:window-y="27" inkscape:window-maximized="1" inkscape:current-layer="svg7384" />
   <metadata id="metadata20854">
      <rdf:RDF>
         <cc:Work rdf:about="">
            <dc:format>image/svg+xml</dc:format>
            <dc:type rdf:resource="http://purl.org/dc/dcmitype/StillImage" />
         </cc:Work>
      </rdf:RDF>
   </metadata>
   <defs id="defs7386">
      <linearGradient id="linearGradient5606" inkscape:swatch="solid">
         <stop id="stop5608" offset="0" style="stop-color:#000000;stop-opacity:1;" />
      </linearGradient>
      <linearGradient id="linearGradient4526" inkscape:swatch="solid">
         <stop id="stop4528" offset="0" style="stop-color:#ffffff;stop-opacity:1;" />
      </linearGradient>
      <linearGradient id="linearGradient3600-4" inkscape:swatch="gradient">
         <stop id="stop3602-7" offset="0" style="stop-color:#f4f4f4;stop-opacity:1" />
         <stop id="stop3604-6" offset="1" style="stop-color:#dbdbdb;stop-opacity:1" />
      </linearGradient>
   </defs>
   <path id="rect38" style="fill:#808080;fill-rule:evenodd;stroke-width:2;stroke-linecap:square;stroke-linejoin:round" d="M 5.5 2 C 5.223 2 5 2.223 5 2.5 C 5 2.777 5.223 3 5.5 3 L 6.8535156 3 C 6.2994365 3.5659355 6 4.4113234 6 5.5 L 6 5.640625 L 9.9121094 12 L 6 18.359375 L 6 18.5 C 6 19.588677 6.2994365 20.434065 6.8535156 21 L 5.5 21 C 5.223 21 5 21.223 5 21.5 C 5 21.777 5.223 22 5.5 22 L 10.5 22 L 13.5 22 L 18.5 22 C 18.777 22 19 21.777 19 21.5 C 19 21.223 18.777 21 18.5 21 L 17.146484 21 C 17.700564 20.434065 18 19.588677 18 18.5 L 18 18.359375 L 14.085938 12 L 18 5.640625 L 18 5.5 C 18 4.4113234 17.700564 3.5659355 17.146484 3 L 18.5 3 C 18.777 3 19 2.777 19 2.5 C 19 2.2229999 18.777 2 18.5 2 L 5.5 2 z M 9.5 7 L 14.5 7 L 12 11 L 9.5 7 z M 12 13 L 12.447266 17.019531 A 4 3 0 0 1 16 20 L 8 20 A 4 3 0 0 1 11.552734 17.019531 L 12 13 z " />
</svg>

<svg height="24" width="24" xmlns="http://www.w3.org/2000/svg"><path style="fill:gray;stroke-width:2;stroke-linecap:square;stroke-linejoin:round" d="M5.5 2a.499.499 0 1 0 0 1h1.354C6.299 3.566 6 4.411 6 5.5v.14L9.912 12 6 18.36v.14c0 1.089.3 1.934.854 2.5H5.5a.499.499 0 1 0 0 1h13a.499.499 0 1 0 0-1h-1.354c.555-.566.854-1.411.854-2.5v-.14L14.086 12 18 5.64V5.5c0-1.089-.3-1.934-.854-2.5H18.5a.499.499 0 1 0 0-1h-13zm4 5h5L12 11 9.5 7zm2.5 6 .447 4.02A4 3 0 0 1 16 20H8a4 3 0 0 1 3.553-2.98L12 13z"/></svg>
